X:1
T:Immortal, Invisible, God Only Wise
T:Immortal, Invisible, God Only Wise
%%score ( 1 2 ) ( 3 4 )
L:1/8
M:3/4
K:G
V:1 treble nm="Piano" snm="Pno."
V:2 treble 
V:3 bass nm="Piano" snm="Pno."
V:4 bass 
V:1
 [DG]2 | [CE]2 C2 [EA]2 | [DF]2 D2 [B,G]2 | [DB]2 [DB]2 A2 | [B,G]4 | [DG]2 | [CE]2 C2 [EA]2 | %7
w: 1~Im-|mor- tal, in-|vi- si- ble,|God on- ly|wise,|in|light in- ac-|
w: 2~Un-|res- ting, un-|has- ting, and|si- lent as|light,|nor|wan- ting nor|
w: 3~To|all life thou|giv- est, to|both great and|small;|in|all life thou|
w: 4~Great|Fa- ther of|glo- ry, pure|Fa- ther of|light,|thine|an- gels a-|
 [DF]2 D2 [B,G]2 | [DB]2 [DB]2 A2 | [B,G]4 | [DG]2 | [GB]2 [GB]2 [Dd]2 | [DB]2 [DG]2 [DG]2 | %13
w: ces- si- ble|hid from our|eyes,|most|bles- sed, most|glo- rious, the|
w: was- ting, thou|ru- lest in|might;|thy|jus- tice like|moun- tains high|
w: liv- est, the|true life of|all;|we|blos- som and|flour- ish as|
w: dore thee, all|veil- ing their|sight;|all|praise we would|re- nder, O|
 [DB]2 [EB]2 [Dd]2 | [DA]4 | [DB]2 | [EG]2 [CE]2 [EA]2 | [DF]2 D2 [B,G]2 | [DB]2 [GB]2 [FA]2 | %19
w: An- cient of|Days,|al-|migh- ty, vic-|to- rious, thy|great name we|
w: soar- ing a-|bove,|thy|clouds, which are|foun- tains of|good- ness and|
w: leaves on the|tree,|and|wi- ther and|pe- rish— but|nought chang- est|
w: help us to|see|'tis|on- ly the|splen- dor of|light hi- deth|
 G4 |] %20
w: praise.|
w: love.|
w: thee.|
w: thee.|
V:2
 x2 | x2 C2 x2 | x2 D2 x2 | x4 DC | x4 | x2 | x2 C2 x2 | x2 D2 x2 | x4 DC | x4 | x2 | x6 | x6 | %13
 x6 | x4 | x2 | x6 | x2 D2 x2 | x6 | G4 |] %20
V:3
 [G,,B,]2 | [C,G,]2 [C,E,]2 [A,,C]2 | [D,A,]2 [D,F,]2 [E,G,]2 | [D,G,]2 [D,G,]2 [D,F,]2 | %4
 [G,,G,]4 | [G,,B,]2 | [C,G,]2 [C,E,]2 [A,,C]2 | [D,A,]2 [D,F,]2 [E,G,]2 | %8
 [D,G,]2 [D,G,]2 [D,F,]2 | [G,,G,]4 | [G,,B,]2 | [G,D]2 [G,D]2 [F,A,]2 | %12
 [G,B,]2 [G,B,]2 [B,D][A,C] | [G,B,]2 [E,G,]2 G,2 | [D,F,]4 | [G,,G,]2 | [C,G,]2 [C,G,]2 [A,,C]2 | %17
 [D,A,]2 [D,F,]2 [E,G,]2 | [D,G,]2 [D,D]2 DC | [G,,B,]4 |] %20
V:4
 x2 | x6 | x6 | x6 | x4 | x2 | x6 | x6 | x6 | x4 | x2 | x6 | x6 | x4 B,,C, | x4 | x2 | x6 | x6 | %18
 x4 D,2 | x4 |] %20

